packages/foundations/assets/icons/functional/images/notification/information_circle_12_filled.svg

<svg width="12" height="12" viewBox="0 0 12 12" fill="none" xmlns="http://www.w3.org/2000/svg">
<g clip-path="url(#clip0_2214_8098)">
<path fill-rule="evenodd" clip-rule="evenodd" d="M5.99995 1.20001C8.6437 1.20001 10.8 3.35626 10.8 6.00001C10.8 8.64376 8.6437 10.8 5.99995 10.8C3.3562 10.8 1.19995 8.64376 1.19995 6.00001C1.19995 3.35626 3.3562 1.20001 5.99995 1.20001ZM6.59995 4.80001H4.46245V6.00001H5.39995V7.20001H4.19995V8.40001H7.79995V7.20001H6.59995V4.80001ZM5.99995 2.68126C5.58745 2.68126 5.2312 3.01876 5.2312 3.43126C5.2312 3.86251 5.58745 4.20001 5.99995 4.20001C6.41245 4.20001 6.7687 3.86251 6.7687 3.43126C6.7687 3.01876 6.41245 2.68126 5.99995 2.68126Z" fill="#1A1C1F"/>
</g>
<defs>
<clipPath id="clip0_2214_8098">
<rect width="12" height="12" fill="white"/>
</clipPath>
</defs>
</svg>

<svg xmlns="http://www.w3.org/2000/svg" width="12" height="12" fill="none"><g clip-path="url(#a)"><path fill="#1A1C1F" fill-rule="evenodd" d="M6 1.2A4.81 4.81 0 0 1 10.8 6 4.81 4.81 0 0 1 6 10.8 4.81 4.81 0 0 1 1.2 6 4.81 4.81 0 0 1 6 1.2m.6 3.6H4.462V6H5.4v1.2H4.2v1.2h3.6V7.2H6.6zM6 2.681c-.413 0-.769.338-.769.75 0 .431.356.769.769.769a.77.77 0 0 0 .769-.769c0-.412-.357-.75-.769-.75" clip-rule="evenodd"/></g><defs><clipPath id="a"><path fill="#fff" d="M0 0h12v12H0z"/></clipPath></defs></svg>
